X: 1
T:Colonel Davidson  "CYMRU"
M:C|
L:1/8
Q:80
C:R. Ireland
S:March
K:HP
|: {g}A3/4B/4|
{gcd}c{e}A{gBd}B{e}A3/4B/4|
{GdG}c3/4d/4{gef}e3/4d/4{gcd}c{g}B/2{d}A3/4|  !
{gef}e{gde}d3/4c/4{g}f3/4e/4{gde}d/4c3/4|
{Gdc}d{g}f3/4d/4{gBG}B{g}A3/4B/4| |
{gcd}c{e}A{gBd}B{e}A3/4B/4|  !
{GdG}c3/4d/4{gef}e3/4d/4{gcd}c3/4B/4{g}c/4{d}A3/4|
{g}e3/4f/4{gef}e3/4c/4{g}f{GdG}e3/4c/4|
{gBd}B{e}A{GAG}A:| |:  !
{g}c/4e3/4|
{gfg}f3/4e/4{g}f/4a3/4{fg}f3/4e/4{g}c3/4d/4|
{gef}e3/2{GdG}e/2{gfg}f3/4e/4{g}c/4e3/4|  !
{gfg}f3/4e/4{g}f/4a3/4{fg}f3/4e/4{g}c3/4d/4|
{gef}e3/4c/4a3/4c/4{gBG}B{g}c/4e3/4| |
{gfg}f3/4e/4{g}f/4a3/4{fg}f3/4e/4{g}c3/4d/4|  !
{gef}e3/4c/4a3/4f/4{gef}e3/4c/4{g}B/4{d}c3/4|
{g}A3/4{d}c/4|1 {gef}e3/4c/4|2 a3/4e/4{g}f{GdG}e3/4c/4|
{gBd}B{e}A{GAG}A:| |:  !
{g}A3/4B/4|
{g}c{GdGe}c/4A3/4{g}B{GdGe}B/4A3/4|
{g}c{GdGe}c3/4d/4{gef}e3/4d/4{g}c/4{d}A3/4|  !
{gef}e3/4c/4{g}f3/4d/4{gef}e3/4c/4{gde}d3/4B/4|
{g}c/4{d}A3/4{gef}e3/4c/4{gBG}B{g}A3/4B/4| |
{g}c{GdGe}c/4A3/4{g}B{GdGe}B/4A3/4|  !
{g}c{GdGe}c3/4d/4{gef}e3/4d/4{g}c/4{d}A3/4|
{g}e3/4f/4{gef}e3/4c/4{g}f{GdG}e3/4c/4|
{gBd}B{e}A{GAG}A:| |:  !
{g}c/4e3/4|
{g}f/4a3/4e3/4g/4{fg}f3/4d/4{gef}e3/4c/4|
{g}A3/4{d}c/4{g}e3/4g/4{fg}f3/4d/4{gef}e3/4c/4|  !
{g}f/4a3/4e3/4g/4{fg}f3/4d/4{gef}e3/4c/4|
{Gdc}d3/4f/4{gef}e3/4c/4{gBG}B{g}c/4e3/4|1 |
{g}f/4a3/4e3/4g/4{fg}f3/4d/4{gef}e3/4c/4|  !
{g}A3/4{d}c/4{g}e3/4g/4{fg}f3/4d/4{gef}e3/4c/4|
{g}A3/4{d}c/4{g}e3/4g/4{fg}f{GdG}e3/4c/4|
{gBd}B{e}A{GAG}A:|2 |  !
{gfg}f3/4e/4{g}f/4a3/4{fg}f3/4e/4{g}c3/4d/4|
{gef}e3/4c/4a3/4f/4{gef}e3/4c/4{g}B/4{d}c3/4|
{g}A3/4{d}c/4a3/4e/4{g}f{GdG}e3/4c/4|  !
{gBd}B{e}A{GAG}A|]
